Icons/com_stubhub.svg

<svg viewBox="0 0 48 48" xmlns:xlink="http://www.w3.org/1999/xlink">
 <defs>
  <linearGradient id="0">
   <stop stop-opacity="0"/>
   <stop offset="1"/>
  </linearGradient>
  <linearGradient xlink:href="#0" id="1" gradientUnits="userSpaceOnUse" gradientTransform="translate(4e-7,-48)" y1="47" x2="0" y2="1"/>
  <clipPath id="2">
   <g transform="translate(0,-1004.3622)">
    <rect rx="4" y="1005.36" x="1" height="46" width="46" fill="#1890d0"/>
   </g>
  </clipPath>
  <clipPath id="3">
   <g transform="translate(0,-1004.3622)">
    <rect rx="4" y="1005.36" x="1" height="46" width="46" fill="#1890d0"/>
   </g>
  </clipPath>
 </defs>
 <g>
  <g transform="translate(0,-1004.3622)">
   <path d="m 5,1006.3622 c -2.216,0 -4,1.784 -4,4 l 0,37.25 c 0,2.216 1.784,4 4,4 l 38,0 c 2.216,0 4,-1.784 4,-4 l 0,-37.25 c 0,-2.216 -1.784,-4 -4,-4 l -38,0 z m -4,41.5 0,0.5 c 0,2.216 1.784,4 4,4 l 38,0 c 2.216,0 4,-1.784 4,-4 l 0,-0.5 c 0,2.216 -1.784,4 -4,4 l -38,0 c -2.216,0 -4,-1.784 -4,-4 z" opacity="0.02"/>
   <path d="m 1,1047.6122 0,0.25 c 0,2.216 1.784,4 4,4 l 38,0 c 2.216,0 4,-1.784 4,-4 l 0,-0.25 c 0,2.216 -1.784,4 -4,4 l -38,0 c -2.216,0 -4,-1.784 -4,-4 z" opacity="0.05"/>
   <rect width="46" height="46" x="1" y="1005.61" rx="4" opacity="0.1"/>
  </g>
 </g>
 <g>
  <g transform="translate(0,-1004.3622)">
   <rect rx="4" y="1005.36" x="1" height="46" width="46" fill="#fbfbfb"/>
  </g>
 </g>
 <g>
  <rect transform="scale(1,-1)" width="46" height="46" x="1" y="-46.998" rx="4" opacity="0.1" fill="url(#1)"/>
 </g>
 <g>
  <g clip-path="url(#2)">
   <g opacity="0.1">
    <g>
     <path d="M 19 11 L 21 11 C 21 12.378906 23 12.386719 23 11 L 25 11 L 24 27 L 23 27 C 23 25.644531 21 25.675781 21 27 L 20 27 "/>
     <path d="M 24 31 C 24 32.105469 23.105469 33 22 33 C 20.894531 33 20 32.105469 20 31 C 20 29.894531 20.894531 29 22 29 C 23.105469 29 24 29.894531 24 31 Z M 24 31 "/>
     <path d="M 23 15 L 25 15 C 25 16.378906 27 16.386719 27 15 L 29 15 L 28 31 L 27 31 C 27 29.644531 25 29.675781 25 31 L 24 31 "/>
     <path d="M 28 35 C 28 36.105469 27.105469 37 26 37 C 24.894531 37 24 36.105469 24 35 C 24 33.894531 24.894531 33 26 33 C 27.105469 33 28 33.894531 28 35 Z M 28 35 "/>
    </g>
   </g>
  </g>
 </g>
 <g>
  <g clip-path="url(#3)">
   <g transform="translate(0,-1)">
    <g>
     <path d="M 19 11 L 21 11 C 21 12.378906 23 12.386719 23 11 L 25 11 L 24 27 L 23 27 C 23 25.644531 21 25.675781 21 27 L 20 27 " fill="#ff6213"/>
     <path d="M 24 31 C 24 32.105469 23.105469 33 22 33 C 20.894531 33 20 32.105469 20 31 C 20 29.894531 20.894531 29 22 29 C 23.105469 29 24 29.894531 24 31 Z M 24 31 " fill="#ff6213"/>
     <path d="M 23 15 L 25 15 C 25 16.378906 27 16.386719 27 15 L 29 15 L 28 31 L 27 31 C 27 29.644531 25 29.675781 25 31 L 24 31 " fill="#004a8f"/>
     <path d="M 28 35 C 28 36.105469 27.105469 37 26 37 C 24.894531 37 24 36.105469 24 35 C 24 33.894531 24.894531 33 26 33 C 27.105469 33 28 33.894531 28 35 Z M 28 35 " fill="#004a8f"/>
    </g>
   </g>
  </g>
 </g>
 <g>
  <g transform="translate(0,-1004.3622)">
   <path d="m 1,1043.3622 0,4 c 0,2.216 1.784,4 4,4 l 38,0 c 2.216,0 4,-1.784 4,-4 l 0,-4 c 0,2.216 -1.784,4 -4,4 l -38,0 c -2.216,0 -4,-1.784 -4,-4 z" opacity="0.1"/>
  </g>
 </g>
</svg>

<svg viewBox="0 0 48 48"><defs><linearGradient id="linearGradient3764" x1="1" x2="47" gradientUnits="userSpaceOnUse" gradientTransform="translate(-48.000001,0.00221467)"><stop stop-color="#f1f1f1" stop-opacity="1"/><stop offset="1" stop-color="#fbfbfb" stop-opacity="1"/></linearGradient><clipPath id="clipPath-127258925"><g transform="translate(0,-1004.3622)"><rect rx="4" y="1005.36" x="1" height="46" width="46" fill="#1890d0"/></g></clipPath><clipPath id="clipPath-141309744"><g transform="translate(0,-1004.3622)"><rect rx="4" y="1005.36" x="1" height="46" width="46" fill="#1890d0"/></g></clipPath></defs><g><path d="m 1 43 l 0 0.25 c 0 2.216 1.784 4 4 4 l 38 0 c 2.216 0 4 -1.784 4 -4 l 0 -0.25 c 0 2.216 -1.784 4 -4 4 l -38 0 c -2.216 0 -4 -1.784 -4 -4 z m 0 0.5 l 0 0.5 c 0 2.216 1.784 4 4 4 l 38 0 c 2.216 0 4 -1.784 4 -4 l 0 -0.5 c 0 2.216 -1.784 4 -4 4 l -38 0 c -2.216 0 -4 -1.784 -4 -4 z" opacity="0.02"/><path d="m 1 43.25 l 0 0.25 c 0 2.216 1.784 4 4 4 l 38 0 c 2.216 0 4 -1.784 4 -4 l 0 -0.25 c 0 2.216 -1.784 4 -4 4 l -38 0 c -2.216 0 -4 -1.784 -4 -4 z" opacity="0.05"/><path d="m 1 43 l 0 0.25 c 0 2.216 1.784 4 4 4 l 38 0 c 2.216 0 4 -1.784 4 -4 l 0 -0.25 c 0 2.216 -1.784 4 -4 4 l -38 0 c -2.216 0 -4 -1.784 -4 -4 z" opacity="0.1"/></g><g><rect width="46" height="46" x="-47" y="1" rx="4" transform="matrix(0,-1,1,0,0,0)" fill="url(#linearGradient3764)" fill-opacity="1"/></g><g><g clip-path="url(#clipPath-127258925)"><g opacity="0.1"><!-- color: #fbfbfb --><g><path d="m 19 11 l 2 0 c 0 1.379 2 1.387 2 0 l 2 0 l -1 16 l -1 0 c 0 -1.355 -2 -1.324 -2 0 l -1 0" fill="#000"/><path d="m 24 31 c 0 1.105 -0.895 2 -2 2 c -1.105 0 -2 -0.895 -2 -2 c 0 -1.105 0.895 -2 2 -2 c 1.105 0 2 0.895 2 2 m 0 0" fill="#000"/><path d="m 23 15 l 2 0 c 0 1.379 2 1.387 2 0 l 2 0 l -1 16 l -1 0 c 0 -1.355 -2 -1.324 -2 0 l -1 0" fill="#000"/><path d="m 28 35 c 0 1.105 -0.895 2 -2 2 c -1.105 0 -2 -0.895 -2 -2 c 0 -1.105 0.895 -2 2 -2 c 1.105 0 2 0.895 2 2 m 0 0" fill="#000"/></g></g></g></g><g><g clip-path="url(#clipPath-141309744)"><g transform="translate(0,-1)"><!-- color: #fbfbfb --><g><path d="m 19 11 l 2 0 c 0 1.379 2 1.387 2 0 l 2 0 l -1 16 l -1 0 c 0 -1.355 -2 -1.324 -2 0 l -1 0" fill="#ff6213"/><path d="m 24 31 c 0 1.105 -0.895 2 -2 2 c -1.105 0 -2 -0.895 -2 -2 c 0 -1.105 0.895 -2 2 -2 c 1.105 0 2 0.895 2 2 m 0 0" fill="#ff6213"/><path d="m 23 15 l 2 0 c 0 1.379 2 1.387 2 0 l 2 0 l -1 16 l -1 0 c 0 -1.355 -2 -1.324 -2 0 l -1 0" fill="#004a8f"/><path d="m 28 35 c 0 1.105 -0.895 2 -2 2 c -1.105 0 -2 -0.895 -2 -2 c 0 -1.105 0.895 -2 2 -2 c 1.105 0 2 0.895 2 2 m 0 0" fill="#004a8f"/></g></g></g></g><g><g transform="translate(0,-1004.3622)"><path d="m 1 1043.36 0 4 c 0 2.216 1.784 4 4 4 l 38 0 c 2.216 0 4 -1.784 4 -4 l 0 -4 c 0 2.216 -1.784 4 -4 4 l -38 0 c -2.216 0 -4 -1.784 -4 -4 z" opacity="0.1"/></g></g></svg>
